src/topics/icons/coreos.svg

<svg height="150" preserveAspectRatio="xMidYMid" viewBox="0 0 512 150" width="512" xmlns="http://www.w3.org/2000/svg"><path d="m75.2473043.3666087c-41.2313043 0-74.76799995 33.5387826-74.76799995 74.7638261 0 41.2278262 33.53669565 74.7645222 74.76799995 74.7645222 41.2187827 0 74.7582607-33.536696 74.7582607-74.7645222 0-41.2250435-33.539478-74.7638261-74.7582607-74.7638261z" fill="#53a3da"/><path d="m75.2473043 7.22713043c-12.0229565 0-22.219826 19.23130437-25.9026086 45.96104347-.1175653.8598261-.2316522 1.730087-.3325218 2.6059131-.5029565 4.2066087-.8438261 8.5808695-1.0142609 13.083826-.0813913 2.0605218-.1217391 4.1433044-.1217391 6.2525218 0 2.1071304.0403478 4.1940869.1217391 6.2504348.1704348 4.5022608.5113044 8.8793043 1.0142609 13.085913 5.6375652.7297391 11.6653913 1.2250435 17.9526957 1.4601739 2.717913.1015652 5.4761739.162087 8.2831304.162087 2.7986087 0 5.5652174-.0612174 8.2747826-.162087 6.2949565-.2351304 12.3186087-.7304348 17.9610434-1.4601739.620522-.0793043 1.231304-.1662609 1.849739-.256 23.481044-3.2973913 39.815652-10.5961739 39.815652-19.0803478-.000695-37.504-30.404174-67.90330437-67.9019127-67.90330437z" fill="#f1606d"/><path d="m103.33287 56.048c-.681044-.9933913-1.411479-1.9450435-2.189913-2.8591304-6.2302613-7.344-15.510957-12.0104348-25.894957-12.0104348-3.3662609 0-6.3638261 5.1526956-8.2831304 13.1540869-.7624348 3.1902609-1.3544348 6.8306087-1.7356522 10.7812174-.3005217 3.1659131-.4626087 6.5328696-.4626087 10.0166957s.162087 6.8514782.4626087 10.0146087c3.168.3005217 6.5300869.461913 10.0187826.461913 3.4845217 0 6.8466087-.1613913 10.0146087-.461913 6.9641739-.6608696 12.976-2 17.2347823-3.7641739 4.205913-1.7398261 6.694957-3.906087 6.694957-6.2504348-.000696-7.0733913-2.160696-13.6431305-5.859478-19.0824348z" fill="#fff"/><g fill="#231f20"><path d="m220.445913 38.2977391c8.754783 0 15.872 4.2699131 20.356174 9.0866087l-7.001044 7.8789565c-3.723826-3.611826-7.773913-5.9095652-13.245913-5.9095652-11.714087 0-20.141217 9.8504348-20.141217 25.9415652 0 16.3116522 7.769739 26.1620867 19.70087 26.1620867 6.349913 0 11.057391-2.6260867 15.107478-7.1151301l7.00313 7.7697391c-5.798261 6.67687-13.243826 10.4-22.329739 10.4-18.169739 0-32.508522-13.133913-32.508522-36.8869565.000696-23.426087 14.667827-37.3273044 33.058783-37.3273044z"/><path d="m270.581565 56.1398261c13.462261 0 25.615305 10.2907826 25.615305 28.2413913 0 17.8413916-12.15374 28.1314786-25.615305 28.1314786-13.354435 0-25.502608-10.290087-25.502608-28.1314786 0-17.9506087 12.148173-28.2413913 25.502608-28.2413913zm0 46.0827829c7.881739 0 12.695652-7.1151307 12.695652-17.8413916 0-10.8361739-4.813913-17.9506087-12.695652-17.9506087s-12.58713 7.1144348-12.58713 17.9506087c0 10.7262609 4.705391 17.8413916 12.58713 17.8413916z"/><path d="m300.362435 57.4532174h10.39513l.876522 9.5220869h.437565c3.830261-7.0052173 9.524174-10.8361739 15.214609-10.8361739 2.739478 0 4.490435.3283479 6.129391 1.0949566l-2.189913 10.9453913c-1.857391-.5453913-3.281391-.8744348-5.577739-.8744348-4.270609 0-9.418435 2.9530435-12.699826 11.056v32.8368695h-12.585739z"/><path d="m356.953739 56.1398261c14.558609 0 22.219826 10.5092174 22.219826 25.5074782 0 2.4055653-.218435 4.594087-.547478 5.9095653h-34.149565c1.092174 9.7412174 7.220174 15.2132174 15.868521 15.2132174 4.600348 0 8.53774-1.419826 12.480696-3.9387827l4.267826 7.8789567c-5.144348 3.393391-11.600695 5.802435-18.387478 5.802435-14.889739 0-26.490435-10.4-26.490435-28.1314786.000696-17.5151304 12.148174-28.2413913 24.738087-28.2413913zm11.273044 23.4260869c0-8.5405217-3.60974-13.6841739-10.944-13.6841739-6.347826 0-11.823305 4.7081739-12.918261 13.6841739z"/></g><path d="m398.331826 74.8570435c0-22.768 12.372174-37.1088696 29.773217-37.1088696 17.296 0 29.663305 14.3408696 29.663305 37.1088696 0 22.8793043-12.366609 37.6556525-29.663305 37.6556525-17.401043 0-29.773217-14.7763482-29.773217-37.6556525zm54.182957 0c0-19.9227826-9.849044-32.5085218-24.410435-32.5085218-14.667131 0-24.520348 12.5864348-24.520348 32.5085218 0 20.032 9.853217 33.0580865 24.520348 33.0580865 14.561391 0 24.410435-13.0260865 24.410435-33.0580865z" fill="#f1606d"/><path d="m467.296 98.173913c5.257043 5.909565 12.808348 9.741217 21.237565 9.741217 10.944 0 17.952696-5.912347 17.952696-14.4466083 0-8.9766956-5.90887-11.9332174-13.024696-15.1074782l-10.946782-4.9266087c-6.239305-2.738087-14.562783-7.2243478-14.562783-17.9533913 0-10.3979131 8.976696-17.7335652 20.910609-17.7335652 8.756869 0 15.762087 3.9408695 20.138434 8.6504347l-2.952347 3.3933913c-4.161392-4.4883478-9.961739-7.4434782-17.186087-7.4434782-9.524174 0-15.872 5.0358261-15.872 12.9147826 0 8.3213913 7.224348 11.4928696 12.477217 13.9026087l10.948174 4.8146087c7.990261 3.613913 15.104696 8.1022609 15.104696 19.1575652 0 11.0553047-9.085913 19.3746087-23.096348 19.3746087-10.509218 0-18.608696-4.487652-24.300522-10.835478z" fill="#53a4d9"/></svg>

<?xml version="1.0" encoding="UTF-8" standalone="no"?>
<svg width="512px" height="150px" viewBox="0 0 512 150" version="1.1" xmlns="http://www.w3.org/2000/svg" xmlns:xlink="http://www.w3.org/1999/xlink" preserveAspectRatio="xMidYMid">
	<g>
		<g>
			<path d="M75.2473043,0.366608696 C34.016,0.366608696 0.479304348,33.9053913 0.479304348,75.1304348 C0.479304348,116.358261 34.016,149.894957 75.2473043,149.894957 C116.466087,149.894957 150.005565,116.358261 150.005565,75.1304348 C150.005565,33.9053913 116.466087,0.366608696 75.2473043,0.366608696 L75.2473043,0.366608696 Z" fill="#53A3DA"></path>
			<path d="M75.2473043,7.22713043 C63.2243478,7.22713043 53.0274783,26.4584348 49.3446957,53.1881739 C49.2271304,54.048 49.1130435,54.9182609 49.0121739,55.794087 C48.5092174,60.0006957 48.1683478,64.3749565 47.997913,68.877913 C47.9165217,70.9384348 47.8761739,73.0212174 47.8761739,75.1304348 C47.8761739,77.2375652 47.9165217,79.3245217 47.997913,81.3808696 C48.1683478,85.8831304 48.5092174,90.2601739 49.0121739,94.4667826 C54.6497391,95.1965217 60.6775652,95.6918261 66.9648696,95.9269565 C69.6827826,96.0285217 72.4410435,96.0890435 75.248,96.0890435 C78.0466087,96.0890435 80.8132174,96.0278261 83.5227826,95.9269565 C89.8177391,95.6918261 95.8413913,95.1965217 101.483826,94.4667826 C102.104348,94.3874783 102.71513,94.3005217 103.333565,94.2107826 C126.814609,90.9133913 143.149217,83.6146087 143.149217,75.1304348 C143.148522,37.6264348 112.745043,7.22713043 75.2473043,7.22713043 L75.2473043,7.22713043 Z" fill="#F1606D"></path>
			<path d="M103.33287,56.048 C102.651826,55.0546087 101.921391,54.1029565 101.142957,53.1888696 C94.9126957,45.8448696 85.632,41.1784348 75.248,41.1784348 C71.8817391,41.1784348 68.8841739,46.3311304 66.9648696,54.3325217 C66.2024348,57.5227826 65.6104348,61.1631304 65.2292174,65.1137391 C64.9286957,68.2796522 64.7666087,71.6466087 64.7666087,75.1304348 C64.7666087,78.6142609 64.9286957,81.981913 65.2292174,85.1450435 C68.3972174,85.4455652 71.7593043,85.6069565 75.248,85.6069565 C78.7325217,85.6069565 82.0946087,85.4455652 85.2626087,85.1450435 C92.2267826,84.4841739 98.2386087,83.1450435 102.497391,81.3808696 C106.703304,79.6410435 109.192348,77.4747826 109.192348,75.1304348 C109.191652,68.0570435 107.031652,61.4873043 103.33287,56.048 L103.33287,56.048 Z" fill="#FFFFFF"></path>
		</g>
		<path d="M220.445913,38.2977391 C229.200696,38.2977391 236.317913,42.5676522 240.802087,47.3843478 L233.801043,55.2633043 C230.077217,51.6514783 226.02713,49.3537391 220.55513,49.3537391 C208.841043,49.3537391 200.413913,59.2041739 200.413913,75.2953043 C200.413913,91.6069565 208.183652,101.457391 220.114783,101.457391 C226.464696,101.457391 231.172174,98.8313043 235.222261,94.3422609 L242.225391,102.112 C236.42713,108.78887 228.981565,112.512 219.895652,112.512 C201.725913,112.512 187.38713,99.378087 187.38713,75.6250435 C187.387826,52.1989565 202.054957,38.2977391 220.445913,38.2977391 L220.445913,38.2977391 Z" fill="#231F20"></path>
		<path d="M270.581565,56.1398261 C284.043826,56.1398261 296.19687,66.4306087 296.19687,84.3812174 C296.19687,102.222609 284.04313,112.512696 270.581565,112.512696 C257.22713,112.512696 245.078957,102.222609 245.078957,84.3812174 C245.078957,66.4306087 257.22713,56.1398261 270.581565,56.1398261 L270.581565,56.1398261 Z M270.581565,102.222609 C278.463304,102.222609 283.277217,95.1074783 283.277217,84.3812174 C283.277217,73.5450435 278.463304,66.4306087 270.581565,66.4306087 C262.699826,66.4306087 257.994435,73.5450435 257.994435,84.3812174 C257.994435,95.1074783 262.699826,102.222609 270.581565,102.222609 L270.581565,102.222609 Z" fill="#231F20"></path>
		<path d="M300.362435,57.4532174 L310.757565,57.4532174 L311.634087,66.9753043 L312.071652,66.9753043 C315.901913,59.970087 321.595826,56.1391304 327.286261,56.1391304 C330.025739,56.1391304 331.776696,56.4674783 333.415652,57.234087 L331.225739,68.1794783 C329.368348,67.634087 327.944348,67.3050435 325.648,67.3050435 C321.377391,67.3050435 316.229565,70.258087 312.948174,78.3610435 L312.948174,111.197913 L300.362435,111.197913 L300.362435,57.4532174 L300.362435,57.4532174 Z" fill="#231F20"></path>
		<path d="M356.953739,56.1398261 C371.512348,56.1398261 379.173565,66.6490435 379.173565,81.6473043 C379.173565,84.0528696 378.95513,86.2413913 378.626087,87.5568696 L344.476522,87.5568696 C345.568696,97.298087 351.696696,102.770087 360.345043,102.770087 C364.945391,102.770087 368.882783,101.350261 372.825739,98.8313043 L377.093565,106.710261 C371.949217,110.103652 365.49287,112.512696 358.706087,112.512696 C343.816348,112.512696 332.215652,102.112696 332.215652,84.3812174 C332.216348,66.866087 344.363826,56.1398261 356.953739,56.1398261 L356.953739,56.1398261 Z M368.226783,79.565913 C368.226783,71.0253913 364.617043,65.8817391 357.282783,65.8817391 C350.934957,65.8817391 345.459478,70.589913 344.364522,79.565913 L368.226783,79.565913 L368.226783,79.565913 Z" fill="#231F20"></path>
		<path d="M398.331826,74.8570435 C398.331826,52.0890435 410.704,37.7481739 428.105043,37.7481739 C445.401043,37.7481739 457.768348,52.0890435 457.768348,74.8570435 C457.768348,97.7363478 445.401739,112.512696 428.105043,112.512696 C410.704,112.512696 398.331826,97.7363478 398.331826,74.8570435 L398.331826,74.8570435 Z M452.514783,74.8570435 C452.514783,54.9342609 442.665739,42.3485217 428.104348,42.3485217 C413.437217,42.3485217 403.584,54.9349565 403.584,74.8570435 C403.584,94.8890435 413.437217,107.91513 428.104348,107.91513 C442.665739,107.91513 452.514783,94.8890435 452.514783,74.8570435 L452.514783,74.8570435 Z" fill="#F1606D"></path>
		<path d="M467.296,98.173913 C472.553043,104.083478 480.104348,107.91513 488.533565,107.91513 C499.477565,107.91513 506.486261,102.002783 506.486261,93.4685217 C506.486261,84.4918261 500.577391,81.5353043 493.461565,78.3610435 L482.514783,73.4344348 C476.275478,70.6963478 467.952,66.210087 467.952,55.4810435 C467.952,45.0831304 476.928696,37.7474783 488.862609,37.7474783 C497.619478,37.7474783 504.624696,41.6883478 509.001043,46.397913 L506.048696,49.7913043 C501.887304,45.3029565 496.086957,42.3478261 488.862609,42.3478261 C479.338435,42.3478261 472.990609,47.3836522 472.990609,55.2626087 C472.990609,63.584 480.214957,66.7554783 485.467826,69.1652174 L496.416,73.9798261 C504.406261,77.5937391 511.520696,82.082087 511.520696,93.1373913 C511.520696,104.192696 502.434783,112.512 488.424348,112.512 C477.91513,112.512 469.815652,108.024348 464.123826,101.676522 L467.296,98.173913 L467.296,98.173913 Z" fill="#53A4D9"></path>
	</g>
</svg>
